modules/hawcons-filled/icons/icon-127-shredder.svg

<?xml version="1.0" encoding="UTF-8" standalone="no"?>
<svg width="32px" height="32px" viewBox="0 0 32 32" version="1.1" xmlns="http://www.w3.org/2000/svg" xmlns:xlink="http://www.w3.org/1999/xlink" xmlns:sketch="http://www.bohemiancoding.com/sketch/ns">
    <!-- Generator: Sketch 3.0.3 (7891) - http://www.bohemiancoding.com/sketch -->
    <title>icon 127 shredder</title>
    <desc>Created with Sketch.</desc>
    <defs></defs>
    <g id="Page-1" stroke="none" stroke-width="1" fill="none" fill-rule="evenodd" sketch:type="MSPage">
        <g id="icon-127-shredder" sketch:type="MSArtboardGroup" fill="#929292">
            <path d="M6,11 L6,4.9973917 C6,3.89585781 6.89427625,3 7.99742191,3 L23.0025781,3 C24.1090746,3 25,3.89426273 25,4.9973917 L25,11 L6,11 L6,11 Z M5,23 L3.99428189,23 C2.3405687,23 1,21.6542582 1,19.9942017 L1,15.0057983 C1,13.3488159 2.34058566,12 3.99428189,12 L27.0057181,12 C28.6594313,12 30,13.3457418 30,15.0057983 L30,19.9942017 C30,21.6511841 28.6594143,23 27.0057181,23 L26,23 L26,20 L5,20 L5,23 L5,23 L5,23 Z M24,17 C24.5522848,17 25,16.5522848 25,16 C25,15.4477152 24.5522848,15 24,15 C23.4477152,15 23,15.4477152 23,16 C23,16.5522848 23.4477152,17 24,17 L24,17 Z M6,21 L6,29 L7,29 L7,21 L6,21 L6,21 Z M8,21 L8,28 L9,28 L9,21 L8,21 L8,21 Z M10,21 L10,29 L11,29 L11,21 L10,21 L10,21 Z M12,21 L12,27 L13,27 L13,21 L12,21 L12,21 Z M14,21 L14,28 L15,28 L15,21 L14,21 L14,21 Z M16,21 L16,27 L17,27 L17,21 L16,21 L16,21 Z M18,21 L18,29 L19,29 L19,21 L18,21 L18,21 Z M22,21 L22,28 L23,28 L23,21 L22,21 L22,21 Z M24,21 L24,29 L25,29 L25,21 L24,21 L24,21 Z M20,21 L20,27 L21,27 L21,21 L20,21 L20,21 Z" id="shredder" sketch:type="MSShapeGroup"></path>
        </g>
    </g>
</svg>

<svg width="32" height="32" xmlns="http://www.w3.org/2000/svg"><path d="M6 11V4.997C6 3.896 6.894 3 7.997 3h15.006C24.109 3 25 3.894 25 4.997V11H6zM5 23H3.994A3 3 0 0 1 1 19.994v-4.988A3.002 3.002 0 0 1 3.994 12h23.012A3 3 0 0 1 30 15.006v4.988A3.002 3.002 0 0 1 27.006 23H26v-3H5v3zm19-6a1 1 0 1 0 0-2 1 1 0 0 0 0 2zM6 21v8h1v-8H6zm2 0v7h1v-7H8zm2 0v8h1v-8h-1zm2 0v6h1v-6h-1zm2 0v7h1v-7h-1zm2 0v6h1v-6h-1zm2 0v8h1v-8h-1zm4 0v7h1v-7h-1zm2 0v8h1v-8h-1zm-4 0v6h1v-6h-1z" fill="#929292" fill-rule="evenodd"/></svg>
